Papirus/24x24/panel/audacious-panel.svg

<?xml version="1.0" encoding="UTF-8" standalone="no"?>
<svg xmlns:dc="http://purl.org/dc/elements/1.1/" xmlns:cc="http://creativecommons.org/ns#" xmlns:rdf="http://www.w3.org/1999/02/22-rdf-syntax-ns#" xmlns:svg="http://www.w3.org/2000/svg" xmlns="http://www.w3.org/2000/svg" version="1.0" width="24" height="24" id="svg2817">
    <metadata id="metadata57">
        <rdf:RDF>
            <cc:Work rdf:about="">
                <dc:format>
                    image/svg+xml
                </dc:format>
                <dc:type rdf:resource="http://purl.org/dc/dcmitype/StillImage"/>
                <dc:title/>
            </cc:Work>
        </rdf:RDF>
    </metadata>
    <path id="path4877" d="m 12,4 a 7.9999999,7.9999999 0 0 0 -8,8 7.9999999,7.9999999 0 0 0 8,8 7.9999999,7.9999999 0 0 0 8,-8 7.9999999,7.9999999 0 0 0 -8,-8 z m -0.115234,4.001953 0.0019,0 c 1.867291,0.07063 2.971939,1.332986 3.09375,3.173828 0.137304,2.075126 -0.474612,2.616212 -0.212891,3.033203 0.54652,0.870793 -0.226444,1.097967 -0.740234,1.523438 C 13.707738,15.99706 13.089206,15.876614 12.783203,15.5 11.853319,14.962301 12.213344,15.9954 10.292969,16 9.2947189,15.959087 8.3776717,15.238828 8.1191406,14.267578 7.7226523,12.778105 8.3045671,11.678952 9.9238281,11.160156 10.392182,11.010095 11.319882,11.099546 11.728516,10.800781 12.11444,10.518606 11.977802,10.113415 11.503906,10.060547 10.824212,9.984727 9.7638549,10.292402 9.1367188,10.167969 8.6333007,10.068089 8.4800807,9.106796 8.8085938,8.693359 9.3461891,8.016733 10.724871,8.045819 11.503906,8.009766 c 0.131197,-0.0061 0.256377,-0.012549 0.38086,-0.0078 z m -0.248047,4.449219 c -0.43248,0 -0.791016,0.322778 -0.791016,0.724609 0,0.401848 0.358507,0.732422 0.791016,0.732422 0.432497,0 0.773437,-0.330591 0.773437,-0.732422 0,-0.401814 -0.340929,-0.72461 -0.773437,-0.724609 z" style="fill:#ffffff;fill-opacity:1"/>
</svg>

<?xml version="1.0" encoding="UTF-8" standalone="no"?>
<svg id="svg2817" xmlns:rdf="http://www.w3.org/1999/02/22-rdf-syntax-ns#" xmlns="http://www.w3.org/2000/svg" height="24" width="24" version="1.0" xmlns:cc="http://creativecommons.org/ns#" xmlns:dc="http://purl.org/dc/elements/1.1/">
 <metadata id="metadata57">
  <rdf:RDF>
   <cc:Work rdf:about="">
    <dc:format>image/svg+xml</dc:format>
    <dc:type rdf:resource="http://purl.org/dc/dcmitype/StillImage"/>
    <dc:title/>
   </cc:Work>
  </rdf:RDF>
 </metadata>
 <path id="path4877" fill="#fff" d="m12 4a8 8 0 0 0 -8 8 8 8 0 0 0 8 8 8 8 0 0 0 8 -8 8 8 0 0 0 -8 -8zm-0.11523 4.002h0.0019c1.8673 0.07063 2.9719 1.333 3.0938 3.1738 0.1373 2.0751-0.47461 2.6162-0.21289 3.0332 0.54652 0.87079-0.22644 1.098-0.74023 1.5234-0.32 0.265-0.939 0.145-1.245-0.232-0.93-0.538-0.57 0.495-2.49 0.5-0.9983-0.041-1.9153-0.761-2.1739-1.732-0.3964-1.49 0.1855-2.589 1.8047-3.108 0.4682-0.15 1.3962-0.06 1.8052-0.359 0.385-0.282 0.249-0.688-0.225-0.74-0.68-0.0763-1.7401 0.231-2.3673 0.107-0.5034-0.1-0.6566-1.0612-0.3281-1.4746 0.5376-0.6767 1.9164-0.6476 2.6954-0.6836 0.1312-0.0061 0.25638-0.012549 0.38086-0.0078zm-0.24805 4.4492c-0.43248 0-0.79102 0.32278-0.79102 0.72461 0 0.40185 0.35851 0.73242 0.79102 0.73242 0.4325 0 0.77344-0.33059 0.77344-0.73242 0-0.40181-0.34093-0.72461-0.77344-0.72461z"/>
</svg>
